public/img/ui/tentacle_bottom.svg

<svg width="116" height="183" viewBox="0 0 116 183" fill="none" xmlns="http://www.w3.org/2000/svg">
<g id="tentacle_2" clip-path="url(#clip0_242_4601)">
<g id="Group">
<path id="Vector" d="M38.1116 63.5522C30.8076 66.1201 12.1516 59.0322 8.94358 49.1922C5.73558 39.3521 13.4716 20.2801 26.1116 15.7201C38.7516 11.1601 71.8316 5.56815 93.1596 37.7761C114.488 69.9841 94.5276 115.264 76.9676 132.392C59.4076 149.52 51.5436 201.64 53.9276 207.432C56.3116 213.224 25.5596 214.768 10.7596 202.416C-4.04042 190.064 8.11958 152.608 22.9756 137.12C37.8316 121.632 65.3676 114.776 74.7436 84.7841C84.1196 54.8002 74.6956 32.7121 53.4156 26.3201C32.1356 19.9281 -1.72042 49.1362 38.1116 63.5522Z" fill="#F4F4F5"/>
<path id="Vector_2" d="M47.464 210.776C37.424 210.776 25.288 208.416 16.024 202.504C6.60799 196.488 1.75999 187.696 2.01599 177.088C2.63199 151.392 31.456 125.432 52.504 106.48C58.392 101.176 63.48 96.5924 67.216 92.6964C76.52 82.9764 76.184 69.2244 75.152 61.8964C73.368 49.1924 66.888 36.9444 59.752 32.7844C53.176 28.9444 44.904 28.1604 37.064 30.6164C29.976 32.8404 24.368 37.4484 21.68 43.2564C19.816 47.2804 19.608 50.7764 21.08 53.6484C23.792 58.9444 31.568 61.4484 37.616 62.6164C38.136 62.7124 38.52 63.1444 38.584 63.6644C38.64 64.1844 38.352 64.6884 37.872 64.8964C23.08 71.3204 14.56 67.8324 10.024 63.7764C2.66399 57.1924 0.599986 44.1844 4.77599 30.6244C7.63199 21.3364 13.936 13.9924 22.992 9.3924C36.76 2.3924 55.312 2.3204 75.232 9.1844C108.264 20.5684 109.248 56.0564 109.896 79.5364C109.936 80.9444 109.976 82.3124 110.016 83.6404C110.696 104.288 89.664 131.104 79.56 143.992C77.936 146.064 76.648 147.704 75.816 148.856C70.072 156.824 66.512 168.96 70.784 174.656C73.944 178.864 75.056 187.32 73.384 194.328C72.312 198.816 69.64 204.848 63.016 208.112C59.632 209.776 53.992 210.776 47.464 210.776ZM46.144 26.8084C51.416 26.8084 56.536 28.1284 60.96 30.7124C68.8 35.2884 75.616 47.9684 77.52 61.5604C79.4 74.9604 76.36 86.6004 68.944 94.3524C65.152 98.3204 60.032 102.928 54.104 108.264C33.384 126.928 4.99999 152.488 4.40799 177.144C4.16799 187.008 8.51199 194.856 17.304 200.48C31.384 209.48 53.736 210 61.936 205.96C67.72 203.112 70.072 197.76 71.024 193.776C72.696 186.768 71.232 179.288 68.84 176.104C63.848 169.448 67.464 156.312 73.848 147.464C74.712 146.264 76.008 144.616 77.648 142.52C87.584 129.856 108.248 103.504 107.6 83.7284C107.56 82.4004 107.52 81.0244 107.48 79.6164C106.808 55.4324 105.896 22.3124 74.432 11.4644C55.128 4.8164 37.24 4.8404 24.056 11.5364C15.592 15.8404 9.71199 22.6884 7.04799 31.3364C3.15199 44.0004 4.93599 56.0324 11.592 61.9924C16.704 66.5604 24.16 67.2724 33.312 64.1044C27.584 62.5524 21.488 59.7684 18.92 54.7524C17.096 51.1924 17.288 46.9844 19.48 42.2564C22.456 35.8404 28.592 30.7684 36.328 28.3364C39.568 27.3204 42.872 26.8164 46.128 26.8164L46.144 26.8084Z" fill="#F9322C"/>
<path id="Vector_3" d="M27.9279 65.3844C27.9279 65.3844 27.8799 65.3844 27.8479 65.3844C20.9039 64.9364 14.4479 61.2564 10.5919 55.5444C6.57587 49.5844 5.80787 41.9284 8.43987 33.9844C14.4479 15.8484 34.9199 8.2404 51.4159 8.8404C52.0799 8.8644 52.5919 9.4244 52.5679 10.0804C52.5439 10.7444 51.9999 11.2564 51.3279 11.2324C35.7279 10.6724 16.3359 17.7764 10.7199 34.7364C7.65587 43.9924 10.0399 50.4244 12.5839 54.2004C15.9759 59.2324 21.8799 62.6004 27.9999 62.9924C28.6639 63.0324 29.1599 63.6084 29.1199 64.2644C29.0799 64.8964 28.5519 65.3844 27.9199 65.3844H27.9279Z" fill="#F9322C"/>
<path id="Vector_4" d="M78.6079 132.752C78.3279 132.752 78.0479 132.656 77.8159 132.456C77.3199 132.016 77.2719 131.264 77.7039 130.76C89.0479 117.832 100.56 89.056 99.6079 66.832C98.6639 44.904 89.0559 27.992 71.8239 17.912C71.2479 17.576 71.0559 16.84 71.3919 16.272C71.7279 15.696 72.4639 15.512 73.0319 15.84C91.0079 26.352 101.024 43.944 102 66.728C103.008 90.272 91.1119 119.112 79.5039 132.336C79.2639 132.608 78.9359 132.744 78.5999 132.744L78.6079 132.752Z" fill="#F9322C"/>
<path id="Vector_5" d="M54.952 195.784C54.424 195.784 53.9359 195.432 53.7919 194.896C50.0719 180.976 56.3999 153.256 68.8159 141.96C69.3039 141.512 70.0639 141.552 70.5119 142.04C70.9599 142.528 70.9199 143.288 70.4319 143.736C58.9039 154.224 52.5919 181.096 56.1119 194.272C56.2799 194.912 55.9039 195.568 55.2639 195.744C55.1599 195.768 55.056 195.784 54.952 195.784Z" fill="#F9322C"/>
<path id="Vector_6" d="M51.1918 210.784C50.7758 210.784 50.3678 210.568 50.1518 210.176C42.2078 196.208 47.3758 168.048 47.5998 166.856C47.7198 166.208 48.3518 165.776 48.9998 165.896C49.6478 166.016 50.0798 166.648 49.9598 167.296C49.9038 167.576 44.7278 195.792 52.2398 208.984C52.5678 209.56 52.3678 210.296 51.7918 210.624C51.6078 210.728 51.3998 210.784 51.1998 210.784H51.1918Z" fill="#F9322C"/>
<path id="Vector_7" d="M61.7756 144.912C61.5436 144.912 61.3116 144.848 61.1116 144.712C60.5596 144.344 60.4156 143.6 60.7836 143.048C68.6796 131.248 78.5676 119.968 78.6716 119.856C79.1116 119.36 79.8636 119.312 80.3676 119.744C80.8636 120.184 80.9116 120.944 80.4796 121.44C80.3836 121.552 70.5916 132.72 62.7836 144.384C62.5516 144.728 62.1756 144.92 61.7836 144.92L61.7756 144.912Z" fill="#F9322C"/>
<path id="Vector_8" d="M74.7438 24.4562C74.5358 24.4562 74.3198 24.4002 74.1278 24.2882C56.8398 13.9762 44.5838 16.1122 44.4638 16.1362C43.8078 16.2562 43.1838 15.8322 43.0638 15.1842C42.9438 14.5362 43.3678 13.9042 44.0158 13.7842C44.5438 13.6802 57.2238 11.4082 75.3598 22.2322C75.9278 22.5682 76.1118 23.3122 75.7758 23.8802C75.5518 24.2562 75.1518 24.4642 74.7438 24.4642V24.4562Z" fill="#F9322C"/>
<path id="Vector_9" d="M72.6715 164.528C71.4395 164.528 70.1115 164.48 68.7035 164.416C68.0395 164.384 67.5275 163.824 67.5595 163.16C67.5915 162.496 68.1435 162 68.8155 162.016C72.8875 162.2 76.4075 162.272 78.2075 161.256C79.9755 160.256 83.7515 155.152 83.9755 151.608C84.1515 148.696 81.4235 143.08 80.3595 141.168C80.0395 140.592 80.2475 139.856 80.8235 139.536C81.3995 139.216 82.1355 139.424 82.4555 140C82.6235 140.304 86.6315 147.544 86.3675 151.76C86.1035 156.048 81.8955 161.928 79.3915 163.344C77.7515 164.272 75.4635 164.536 72.6795 164.536L72.6715 164.528Z" fill="#F9322C"/>
<path id="Vector_10" d="M93.3757 124.344C92.7357 124.344 92.2077 123.848 92.1757 123.2C92.1437 122.536 92.6557 121.976 93.3197 121.944C97.8077 121.728 103.152 119.224 104.984 114.112C107.496 107.096 108.016 103.4 107.744 102.72C107.104 101.376 105.464 97.976 105.464 97.976L107.624 96.936C107.624 96.936 109.264 100.344 109.912 101.696C110.888 103.744 109 110.016 107.24 114.92C105.032 121.072 98.7197 124.088 93.4317 124.336C93.4157 124.336 93.3917 124.336 93.3757 124.336V124.344Z" fill="#F9322C"/>
<path id="Vector_11" d="M108.832 77.5923C108.528 77.5923 108.232 77.4803 108 77.2563C107.52 76.7923 107.512 76.0403 107.968 75.5603C111.08 72.3363 113.072 69.6163 113.416 66.0003C113.808 61.8323 112.44 54.3443 111.712 53.3603C111.224 52.6963 108.24 51.4963 105.768 50.8003C105.128 50.6243 104.76 49.9603 104.936 49.3203C105.112 48.6803 105.776 48.3123 106.416 48.4883C107.808 48.8803 112.44 50.2883 113.648 51.9443C114.952 53.7203 116.2 62.0003 115.808 66.2323C115.408 70.5283 113.072 73.7363 109.704 77.2323C109.472 77.4723 109.152 77.6003 108.84 77.6003L108.832 77.5923Z" fill="#F9322C"/>
<path id="Vector_12" d="M101.92 36.968C101.744 36.968 101.568 36.928 101.4 36.848C100.8 36.56 100.552 35.848 100.84 35.248C101.984 32.856 100.944 28.192 98.0559 22.76C97.1679 21.088 93.0319 18.504 91.9199 18.104C91.4559 18.176 90.4319 18.224 88.0399 18.088C87.3759 18.048 86.8719 17.48 86.9119 16.816C86.9519 16.152 87.5119 15.656 88.1839 15.688C89.5119 15.768 91.1759 15.808 91.5439 15.736C93.2079 15.32 99.0559 19.528 100.176 21.632C102.112 25.272 105.056 32.016 103 36.288C102.792 36.72 102.368 36.968 101.92 36.968ZM91.5439 15.736C91.5439 15.736 91.4879 15.752 91.4719 15.76C91.4959 15.752 91.5199 15.744 91.5439 15.736Z" fill="#F9322C"/>
<path id="Vector_13" d="M77.9517 12.1441C77.5197 12.1441 77.0957 11.9041 76.8797 11.4881C74.3037 6.45611 71.1357 4.23211 69.6317 3.96811C67.6877 3.62411 64.6237 4.54411 64.0237 5.01611C63.3917 5.52011 62.5917 6.64811 62.3357 7.04011C61.9757 7.60011 61.2317 7.76011 60.6797 7.40011C60.1197 7.04011 59.9597 6.29611 60.3197 5.74411C60.4317 5.56811 61.4717 3.98411 62.5357 3.13611C63.8397 2.10411 67.6477 1.17611 70.0557 1.60811C72.9917 2.13611 76.5917 5.66411 79.0157 10.4001C79.3197 10.9921 79.0877 11.7121 78.4957 12.0161C78.3197 12.1041 78.1357 12.1521 77.9517 12.1521V12.1441Z" fill="#F9322C"/>
<path id="Vector_14" d="M38.1118 6.88818C38.0398 6.88818 37.9678 6.88818 37.8958 6.87218C37.2478 6.75218 36.8158 6.13618 36.9278 5.48818C36.9598 5.32818 37.6638 1.52818 40.9518 0.240181C44.1198 -0.999819 49.8558 -0.0798192 50.6878 0.240181C50.9678 0.344181 51.8318 0.672181 54.4158 4.68818C54.7758 5.24818 54.6158 5.98418 54.0558 6.34418C53.4958 6.70418 52.7598 6.54418 52.3998 5.98418C51.4798 4.55218 50.2398 2.84818 49.7838 2.46418C48.9118 2.22418 44.1118 1.58418 41.8318 2.48018C39.7998 3.28018 39.2958 5.89618 39.2878 5.92018C39.1838 6.49618 38.6798 6.90418 38.1118 6.90418V6.88818Z" fill="#F9322C"/>
<path id="Vector_15" d="M19.4716 13.0001L17.0796 12.8561C17.0796 12.8561 17.2236 10.4401 17.2716 9.71209C17.3996 7.83209 22.0076 5.73609 22.0556 5.72009C23.6476 5.04809 25.7196 4.52809 30.2796 6.84009C30.8716 7.14409 31.1036 7.86409 30.8076 8.45609C30.5116 9.04809 29.7836 9.28009 29.1916 8.98409C25.2476 6.98409 23.8876 7.56009 22.9836 7.93609C21.9436 8.37609 20.1036 9.57609 19.6476 10.0961C19.5916 10.9921 19.4716 13.0081 19.4716 13.0081V13.0001Z" fill="#F9322C"/>
<path id="Vector_16" d="M7.66376 27.6722C7.20776 27.6722 6.76776 27.4082 6.56776 26.9602L5.11976 23.7442C4.99176 23.4562 4.98376 23.1362 5.08776 22.8402C5.23176 22.4562 6.49576 19.0322 7.55976 17.7522C8.97576 16.0562 12.6638 15.7602 14.4878 17.1922C15.0078 17.6002 15.0958 18.3522 14.6878 18.8802C14.2798 19.4082 13.5198 19.4882 12.9998 19.0802C12.1518 18.4082 9.94376 18.6402 9.39976 19.2882C8.85576 19.9362 8.02376 21.8722 7.50376 23.2082L8.75176 25.9762C9.02376 26.5842 8.75176 27.2882 8.15176 27.5602C7.99176 27.6322 7.82376 27.6642 7.66376 27.6642V27.6722Z" fill="#F9322C"/>
<path id="Vector_17" d="M3.92788 42.752C3.75188 42.752 3.56788 42.712 3.39188 42.624C0.319884 41.104 -0.0241156 40.472 -0.152116 40.24C-0.528116 39.552 -0.416116 38.496 0.399884 34.832L0.551884 34.16C0.983884 32.16 3.74388 30.496 5.57588 30.064C6.22388 29.912 6.86388 30.312 7.01588 30.96C7.16788 31.608 6.76788 32.248 6.11988 32.4C4.68788 32.736 3.03988 34 2.89588 34.664L2.74388 35.36C2.55988 36.2 2.08788 38.288 2.03988 39.112C2.47188 39.424 3.48788 40.008 4.45588 40.488C5.04788 40.784 5.28788 41.504 4.99988 42.096C4.79188 42.52 4.36788 42.76 3.92788 42.76V42.752Z" fill="#F9322C"/>
<path id="Vector_18" d="M5.84776 57.08C5.77576 57.08 5.70376 57.08 5.63176 57.056C3.48776 56.656 2.12776 56.192 1.59976 55.664C0.71176 54.784 -0.0962395 52.28 -0.32824 51.272C-0.760239 49.4 0.74376 47.664 2.34376 45.832L2.43976 45.728C2.87176 45.232 3.63176 45.176 4.13576 45.608C4.63176 46.04 4.68776 46.8 4.25576 47.304L4.15976 47.416C3.19176 48.528 1.85576 50.056 2.01576 50.736C2.31176 52.024 2.98376 53.568 3.27176 53.936C3.62376 54.136 4.89576 54.48 6.07176 54.696C6.71976 54.816 7.15176 55.44 7.03176 56.096C6.92776 56.672 6.42376 57.08 5.85576 57.08H5.84776Z" fill="#F9322C"/>
<path id="Vector_19" d="M10.168 67.6961C10.104 67.6961 10.032 67.696 9.97599 67.688C9.04799 67.568 8.11199 66.784 6.90399 65.56L6.76799 65.416C5.45599 64.104 6.95199 59.44 6.96799 59.4C7.18399 58.776 7.86399 58.432 8.49599 58.656C9.11999 58.872 9.45599 59.5521 9.23999 60.1841C8.80799 61.4401 8.57599 63.28 8.63999 63.904C9.58399 64.864 10.032 65.184 10.24 65.288C10.608 65.152 11.424 64.616 12.072 64.088C12.584 63.664 13.336 63.736 13.76 64.248C14.184 64.76 14.112 65.512 13.6 65.936C12.6 66.76 11.224 67.712 10.176 67.712L10.168 67.6961ZM8.46399 63.712H8.47199C8.47199 63.712 8.47199 63.712 8.46399 63.712Z" fill="#F9322C"/>
<path id="Vector_20" d="M21.1115 71.1044C20.6155 71.1044 20.0475 71.0644 19.4315 70.9524C17.2315 70.5604 16.7755 68.7044 16.5035 67.5844C16.3435 66.9444 16.7435 66.2884 17.3835 66.1364C18.0235 65.9764 18.6795 66.3764 18.8315 67.0164C19.1435 68.2964 19.3195 68.4964 19.8475 68.5844C20.7435 68.7444 21.4875 68.7044 21.9595 68.6404C22.1355 68.3524 22.4075 67.7844 22.6075 67.2804C22.8475 66.6644 23.5435 66.3604 24.1595 66.6004C24.7755 66.8404 25.0795 67.5364 24.8395 68.1524C23.8395 70.7204 23.1195 70.8564 22.7355 70.9364C22.3275 71.0164 21.7675 71.0884 21.1035 71.0884L21.1115 71.1044Z" fill="#F9322C"/>
<path id="Vector_21" d="M23.0796 32.0241C22.9996 32.0241 22.9196 32.0081 22.8396 31.9841C22.4156 31.8481 22.1836 31.4001 22.3196 30.9761L24.0076 25.6561C24.1436 25.2321 24.5916 25.0001 25.0076 25.1361C25.4316 25.2721 25.6636 25.7201 25.5276 26.1441L23.8396 31.4641C23.7356 31.8081 23.4156 32.0241 23.0796 32.0241Z" fill="#F9322C"/>
<path id="Vector_22" d="M27.8639 28.1201C27.6799 28.1201 27.5039 28.0561 27.3519 27.9361C27.0159 27.6561 26.9679 27.1521 27.2479 26.8081L29.9679 23.5521C30.2479 23.2161 30.7599 23.1681 31.0959 23.4481C31.4319 23.7281 31.4799 24.2321 31.1999 24.5761L28.4799 27.8321C28.3199 28.0241 28.0959 28.1201 27.8639 28.1201Z" fill="#F9322C"/>
<path id="Vector_23" d="M33.8397 26.0563C33.5277 26.0563 33.2317 25.8723 33.1037 25.5603C32.9357 25.1523 33.1277 24.6803 33.5357 24.5123L39.8957 21.8723C40.3037 21.7043 40.7757 21.8963 40.9437 22.3043C41.1117 22.7123 40.9197 23.1843 40.5117 23.3523L34.1517 25.9923C34.0557 26.0323 33.9437 26.0563 33.8477 26.0563H33.8397Z" fill="#F9322C"/>
</g>
<path id="Vector_24" d="M18.9039 161.168C18.5119 161.168 18.1679 160.88 18.1119 160.48L16.7839 151.08C16.7199 150.64 17.0239 150.24 17.4639 150.176C17.8959 150.112 18.3039 150.416 18.3679 150.856L19.6959 160.256C19.7599 160.696 19.4559 161.096 19.0159 161.16C18.9759 161.16 18.9439 161.16 18.9039 161.16V161.168Z" fill="#F9322C"/>
<path id="Vector_25" d="M23.6002 151.776C23.2162 151.776 22.8722 151.496 22.8082 151.104L22.1922 147.224C22.1202 146.784 22.4242 146.376 22.8562 146.312C23.2962 146.24 23.7042 146.544 23.7682 146.976L24.3842 150.856C24.4562 151.296 24.1522 151.704 23.7202 151.768C23.6802 151.768 23.6322 151.776 23.5922 151.776H23.6002Z" fill="#F9322C"/>
</g>
<defs>
<clipPath id="clip0_242_4601">
<rect width="115.48" height="211.8" fill="white"/>
</clipPath>
</defs>
</svg>

<svg fill="none" height="183" viewBox="0 0 116 183" width="116" xmlns="http://www.w3.org/2000/svg" xmlns:xlink="http://www.w3.org/1999/xlink"><clipPath id="a"><path d="m0 0h115.48v211.8h-115.48z"/></clipPath><g clip-path="url(#a)"><path d="m38.1116 63.5522c-7.304 2.5679-25.96-4.52-29.16802-14.36-3.208-9.8401 4.52802-28.9121 17.16802-33.4721s45.72-10.15195 67.048 22.056c21.3284 32.208 1.368 77.4879-16.192 94.6159s-25.424 69.248-23.04 75.04-28.368 7.336-43.168-5.016c-14.80002-12.352-2.64002-49.808 12.216-65.296 14.856-15.488 42.392-22.344 51.768-52.3359 9.376-29.9839-.048-52.072-21.328-58.464s-55.13602 22.8161-15.304 37.2321z" fill="#f4f4f5"/><g fill="#f9322c"><path d="m47.464 210.776c-10.04 0-22.176-2.36-31.44-8.272-9.41601-6.016-14.26401-14.808-14.00801-25.416.616-25.696 29.44001-51.656 50.48801-70.608 5.888-5.304 10.976-9.8876 14.712-13.7836 9.304-9.72 8.968-23.472 7.936-30.8-1.784-12.704-8.264-24.952-15.4-29.112-6.576-3.84-14.848-4.624-22.688-2.168-7.088 2.224-12.696 6.832-15.384 12.64-1.864 4.024-2.072 7.52-.6 10.392 2.712 5.296 10.488 7.8 16.536 8.968.52.096.904.528.968 1.048.056.52-.232 1.024-.712 1.232-14.792 6.424-23.312 2.936-27.848-1.12-7.36001-6.584-9.424014-19.592-5.24801-33.152 2.856-9.288 9.16001-16.632 18.21601-21.232 13.768-7 32.32-7.072 52.24-.208 33.032 11.384 34.016 46.872 34.664 70.352.04 1.408.08 2.776.12 4.104.68 20.6476-20.352 47.4636-30.456 60.3516-1.624 2.072-2.912 3.712-3.744 4.864-5.744 7.968-9.304 20.104-5.032 25.8 3.16 4.208 4.272 12.664 2.6 19.672-1.072 4.488-3.744 10.52-10.368 13.784-3.384 1.664-9.024 2.664-15.552 2.664zm-1.32-183.9676c5.272 0 10.392 1.32 14.816 3.904 7.84 4.576 14.656 17.256 16.56 30.848 1.88 13.4-1.16 25.04-8.576 32.792-3.792 3.968-8.912 8.5756-14.84 13.9116-20.72 18.664-49.10401 44.224-49.69601 68.88-.24 9.864 4.104 17.712 12.89601 23.336 14.08 9 36.432 9.52 44.632 5.48 5.784-2.848 8.136-8.2 9.088-12.184 1.672-7.008.208-14.488-2.184-17.672-4.992-6.656-1.376-19.792 5.008-28.64.864-1.2 2.16-2.848 3.8-4.944 9.936-12.664 30.6-39.016 29.952-58.7916-.04-1.328-.08-2.704-.12-4.112-.672-24.184-1.584-57.304-33.048-68.152-19.304-6.648-37.192-6.624-50.376.072-8.464 4.304-14.34401 11.152-17.00801 19.8-3.896 12.664-2.112 24.696 4.54401 30.656 5.112 4.568 12.568 5.28 21.72 2.112-5.728-1.552-11.824-4.336-14.392-9.352-1.824-3.56-1.632-7.768.56-12.496 2.976-6.416 9.112-11.488 16.848-13.92 3.24-1.016 6.544-1.52 9.8-1.52z"/><path d="m27.9279 65.3844s-.048 0-.08 0c-6.944-.448-13.4-4.128-17.256-9.84-4.01603-5.96-4.78403-13.616-2.15203-21.56 6.00803-18.136 26.48003-25.744 42.97603-25.144.664.024 1.176.584 1.152 1.24-.024.664-.568 1.176-1.24 1.152-15.6-.56-34.992 6.544-40.608 23.504-3.06403 9.256-.68 15.688 1.864 19.464 3.392 5.032 9.296 8.4 15.416 8.792.664.04 1.16.616 1.12 1.272-.04.632-.568 1.12-1.2 1.12z"/><path d="m78.6079 132.752c-.28 0-.56-.096-.792-.296-.496-.44-.544-1.192-.112-1.696 11.344-12.928 22.8561-41.704 21.904-63.928-.944-21.928-10.552-38.84-27.784-48.92-.576-.336-.768-1.072-.432-1.64.336-.576 1.072-.76 1.64-.432 17.976 10.512 27.9921 28.104 28.9681 50.888 1.008 23.544-10.8881 52.384-22.4961 65.608-.24.272-.568.408-.904.408z"/><path d="m54.952 195.784c-.528 0-1.0161-.352-1.1601-.888-3.72-13.92 2.608-41.64 15.024-52.936.488-.448 1.248-.408 1.696.08s.408 1.248-.08 1.696c-11.528 10.488-17.84 37.36-14.32 50.536.168.64-.208 1.296-.848 1.472-.104.024-.2079.04-.3119.04z"/><path d="m51.1918 210.784c-.416 0-.824-.216-1.04-.608-7.944-13.968-2.776-42.128-2.552-43.32.12-.648.752-1.08 1.4-.96s1.08.752.96 1.4c-.056.28-5.232 28.496 2.28 41.688.328.576.128 1.312-.448 1.64-.184.104-.392.16-.592.16z"/><path d="m61.7756 144.912c-.232 0-.464-.064-.664-.2-.552-.368-.696-1.112-.328-1.664 7.896-11.8 17.784-23.08 17.888-23.192.44-.496 1.192-.544 1.696-.112.496.44.544 1.2.112 1.696-.096.112-9.888 11.28-17.696 22.944-.232.344-.608.536-1 .536z"/><path d="m74.7438 24.4562c-.208 0-.424-.056-.616-.168-17.288-10.312-29.544-8.176-29.664-8.152-.656.12-1.28-.304-1.4-.952s.304-1.28.952-1.4c.528-.104 13.208-2.376 31.344 8.448.568.336.752 1.08.416 1.648-.224.376-.624.584-1.032.584z"/><path d="m72.6715 164.528c-1.232 0-2.56-.048-3.968-.112-.664-.032-1.176-.592-1.144-1.256s.584-1.16 1.256-1.144c4.072.184 7.592.256 9.392-.76 1.768-1 5.544-6.104 5.768-9.648.176-2.912-2.552-8.528-3.616-10.44-.32-.576-.112-1.312.464-1.632s1.312-.112 1.632.464c.168.304 4.176 7.544 3.912 11.76-.264 4.288-4.472 10.168-6.976 11.584-1.64.928-3.928 1.192-6.712 1.192z"/><path d="m93.3757 124.344c-.64 0-1.168-.496-1.2-1.144-.032-.664.48-1.224 1.144-1.256 4.488-.216 9.8323-2.72 11.6643-7.832 2.512-7.016 3.032-10.712 2.76-11.392-.64-1.344-2.28-4.744-2.28-4.744l2.16-1.04s1.64 3.408 2.288 4.76c.976 2.048-.912 8.32-2.672 13.224-2.208 6.152-8.5203 9.168-13.8083 9.416-.016 0-.04 0-.056 0z"/><path d="m108.832 77.5923c-.304 0-.6-.112-.832-.336-.48-.464-.488-1.216-.032-1.696 3.112-3.224 5.104-5.944 5.448-9.56.392-4.168-.976-11.656-1.704-12.64-.488-.664-3.472-1.864-5.944-2.56-.64-.176-1.008-.84-.832-1.48s.84-1.008 1.48-.832c1.392.392 6.024 1.8 7.232 3.456 1.304 1.776 2.552 10.056 2.16 14.288-.4 4.296-2.736 7.504-6.104 11-.232.24-.552.368-.864.368z"/><path d="m101.92 36.968c-.176 0-.352-.04-.52-.12-.6-.288-.848-1-.56-1.6 1.144-2.392.104-7.056-2.7841-12.488-.888-1.672-5.024-4.256-6.136-4.656-.464.072-1.488.12-3.88-.016-.664-.04-1.168-.608-1.128-1.272s.6-1.16 1.272-1.128c1.328.08 2.992.12 3.36.048 1.664-.416 7.512 3.792 8.6321 5.896 1.936 3.64 4.88 10.384 2.824 14.656-.208.432-.632.68-1.08.68zm-10.3761-21.232s-.056.016-.072.024c.024-.008.048-.016.072-.024z"/><path d="m77.9517 12.1441c-.432 0-.856-.24-1.072-.656-2.576-5.03199-5.744-7.25599-7.248-7.51999-1.944-.344-5.008.576-5.608 1.048-.632.504-1.432 1.632-1.688 2.024-.36.56-1.104.72-1.656.36-.56-.36-.72-1.104-.36-1.656.112-.176 1.152-1.76 2.216-2.608 1.304-1.032 5.112-1.96 7.52-1.528 2.936.528 6.536 4.056 8.96 8.79199.304.592.072 1.312-.52 1.616-.176.088-.36.136-.544.136z"/><path d="m38.1118 6.88818c-.072 0-.144 0-.216-.016-.648-.12-1.08-.736-.968-1.384.032-.16.736-3.96 4.024-5.247999 3.168-1.24 8.904-.3200002 9.736 0 .28.104 1.144.432 3.728 4.447999.36.56.2 1.296-.36 1.656s-1.296.2-1.656-.36c-.92-1.432-2.16-3.136-2.616-3.52-.872-.24-5.672-.88-7.952.016-2.032.8-2.536 3.416-2.544 3.44-.104.576-.608.984-1.176.984z"/><path d="m19.4716 13.0001-2.392-.144s.144-2.416.192-3.14401c.128-1.88 4.736-3.976 4.784-3.992 1.592-.672 3.664-1.192 8.224 1.12.592.304.824 1.024.528 1.616s-1.024.824-1.616.528c-3.944-2-5.304-1.424-6.208-1.048-1.04.44-2.88 1.64-3.336 2.16001-.056.896-.176 2.912-.176 2.912z"/><path d="m7.66376 27.6722c-.456 0-.896-.264-1.096-.712l-1.448-3.216c-.128-.288-.136-.608-.032-.904.144-.384 1.408-3.808 2.472-5.088 1.416-1.696 5.10404-1.992 6.92804-.56.52.408.608 1.16.2 1.688s-1.168.608-1.688.2c-.848-.672-3.05604-.44-3.60004.208s-1.376 2.584-1.896 3.92l1.248 2.768c.272.608 0 1.312-.6 1.584-.16.072-.328.104-.488.104z"/><path d="m3.92788 42.752c-.176 0-.36-.04-.536-.128-3.071996-1.52-3.4159956-2.152-3.543996-2.384-.376-.688-.264-1.744.552-5.408l.152-.672c.432-2 3.191996-3.664 5.023996-4.096.648-.152 1.288.248 1.44.896s-.248 1.288-.896 1.44c-1.432.336-3.08 1.6-3.224 2.264l-.152.696c-.184.84-.656 2.928-.704 3.752.432.312 1.448.896 2.416 1.376.592.296.832 1.016.544 1.608-.208.424-.632.664-1.072.664z"/><path d="m5.84776 57.08c-.072 0-.144 0-.216-.024-2.144-.4-3.504-.864-4.032-1.392-.888-.88-1.6959995-3.384-1.928-4.392-.431999-1.872 1.072-3.608 2.672-5.44l.096-.104c.432-.496 1.192-.552 1.696-.12.496.432.552 1.192.12 1.696l-.096.112c-.968 1.112-2.304 2.64-2.144 3.32.296 1.288.968 2.832 1.256 3.2.352.2 1.624.544 2.8.76.648.12 1.08.744.96 1.4-.104.576-.608.984-1.176.984z"/><path d="m10.168 67.6961c-.064 0-.136-.0001-.19201-.0081-.928-.12-1.864-.904-3.072-2.128l-.136-.144c-1.312-1.312.184-5.976.2-6.016.216-.624.896-.968 1.528-.744.624.216.96.8961.744 1.5281-.432 1.256-.664 3.0959-.6 3.7199.944.96 1.39201 1.28 1.60001 1.384.368-.136 1.184-.672 1.832-1.2.512-.424 1.264-.352 1.688.16s.352 1.264-.16 1.688c-1 .824-2.376 1.776-3.424 1.776zm-1.70401-3.9841h.008s0 0-.008 0z"/><path d="m21.1115 71.1044c-.496 0-1.064-.04-1.68-.152-2.2-.392-2.656-2.248-2.928-3.368-.16-.64.24-1.296.88-1.448.64-.16 1.296.24 1.448.88.312 1.28.488 1.48 1.016 1.568.896.16 1.64.12 2.112.056.176-.288.448-.856.648-1.36.24-.616.936-.92 1.552-.68s.92.936.68 1.552c-1 2.568-1.72 2.704-2.104 2.784-.408.08-.968.152-1.632.152z"/><path d="m23.0796 32.0241c-.08 0-.16-.016-.24-.04-.424-.136-.656-.584-.52-1.008l1.688-5.32c.136-.424.584-.656 1-.52.424.136.656.584.52 1.008l-1.688 5.32c-.104.344-.424.56-.76.56z"/><path d="m27.8639 28.1201c-.184 0-.36-.064-.512-.184-.336-.28-.384-.784-.104-1.128l2.72-3.256c.28-.336.792-.384 1.128-.104s.384.784.104 1.128l-2.72 3.256c-.16.192-.384.288-.616.288z"/><path d="m33.8397 26.0563c-.312 0-.608-.184-.736-.496-.168-.408.024-.88.432-1.048l6.36-2.64c.408-.168.88.024 1.048.432s-.024.88-.432 1.048l-6.36 2.64c-.096.04-.208.064-.304.064z"/><path d="m18.9039 161.168c-.392 0-.736-.288-.792-.688l-1.328-9.4c-.064-.44.24-.84.68-.904.432-.064.84.24.904.68l1.328 9.4c.064.44-.24.84-.68.904-.04 0-.072 0-.112 0z"/><path d="m23.6002 151.776c-.384 0-.728-.28-.792-.672l-.616-3.88c-.072-.44.232-.848.664-.912.44-.072.848.232.912.664l.616 3.88c.072.44-.232.848-.664.912-.04 0-.088.008-.128.008z"/></g></g></svg>
